svgs/thin/objects-align-left.svg

<svg xmlns="http://www.w3.org/2000/svg" viewBox="0 0 512 512"><!--! Font Awesome Pro 6.4.0 by @fontawesome - https://fontawesome.com License - https://fontawesome.com/license (Commercial License) Copyright 2023 Fonticons, Inc. --><path d="M0 8C0 3.6 3.6 0 8 0s8 3.6 8 8l0 496c0 4.4-3.6 8-8 8s-8-3.6-8-8L0 8zM112 176c0 17.7 14.3 32 32 32l320 0c17.7 0 32-14.3 32-32l0-64c0-17.7-14.3-32-32-32L144 80c-17.7 0-32 14.3-32 32l0 64zM96 112c0-26.5 21.5-48 48-48l320 0c26.5 0 48 21.5 48 48l0 64c0 26.5-21.5 48-48 48l-320 0c-26.5 0-48-21.5-48-48l0-64zm16 288c0 17.7 14.3 32 32 32l192 0c17.7 0 32-14.3 32-32l0-64c0-17.7-14.3-32-32-32l-192 0c-17.7 0-32 14.3-32 32l0 64zM96 336c0-26.5 21.5-48 48-48l192 0c26.5 0 48 21.5 48 48l0 64c0 26.5-21.5 48-48 48l-192 0c-26.5 0-48-21.5-48-48l0-64z"/></svg>

<svg xmlns="http://www.w3.org/2000/svg" viewBox="0 0 512 512"><!--! Font Awesome Pro 6.3.0 by @fontawesome - https://fontawesome.com License - https://fontawesome.com/license (Commercial License) Copyright 2023 Fonticons, Inc. --><path d="M0 8C0 3.582 3.582 0 8 0C12.42 0 16 3.582 16 8V504C16 508.4 12.42 512 8 512C3.582 512 0 508.4 0 504V8zM96 112C96 85.49 117.5 64 144 64H464C490.5 64 512 85.49 512 112V176C512 202.5 490.5 224 464 224H144C117.5 224 96 202.5 96 176V112zM144 208H464C481.7 208 496 193.7 496 176V112C496 94.33 481.7 80 464 80H144C126.3 80 112 94.33 112 112V176C112 193.7 126.3 208 144 208zM96 336C96 309.5 117.5 288 144 288H336C362.5 288 384 309.5 384 336V400C384 426.5 362.5 448 336 448H144C117.5 448 96 426.5 96 400V336zM144 432H336C353.7 432 368 417.7 368 400V336C368 318.3 353.7 304 336 304H144C126.3 304 112 318.3 112 336V400C112 417.7 126.3 432 144 432z"/></svg>
